museum/assets/i-search.svg

<svg width="20" height="19" viewBox="0 0 20 19" fill="none" xmlns="http://www.w3.org/2000/svg">
<path fill-rule="evenodd" clip-rule="evenodd" d="M7.81548 0.282349C3.50561 0.282349 0 3.64736 0 7.78431C0 11.9213 3.50565 15.2863 7.81552 15.2863C9.52472 15.2863 11.106 14.7547 12.3928 13.8585L17.5 18.7608C17.8324 19.0798 18.3713 19.0797 18.7037 18.7607L19.2508 18.2356C19.5831 17.9165 19.5831 17.3992 19.2507 17.0801L14.1436 12.1779C15.0773 10.9428 15.631 9.42494 15.631 7.78431C15.631 3.64735 12.1253 0.282349 7.81548 0.282349ZM2.47621 7.78431C2.47621 4.95855 4.87165 2.65921 7.81552 2.65921C10.7594 2.65921 13.1548 4.95855 13.1548 7.78431C13.1548 10.6101 10.7594 12.9094 7.81552 12.9094C4.87165 12.9094 2.47621 10.6101 2.47621 7.78431Z" fill="black"/>
</svg>

<svg width="20" height="19" viewBox="0 0 20 19" fill="none" xmlns="http://www.w3.org/2000/svg"><path fill-rule="evenodd" clip-rule="evenodd" d="M7.815.282C3.505.282 0 3.647 0 7.784s3.506 7.502 7.816 7.502a7.99 7.99 0 0 0 4.577-1.428l5.107 4.903a.877.877 0 0 0 1.204 0l.547-.525a.794.794 0 0 0 0-1.156l-5.107-4.902a7.259 7.259 0 0 0 1.487-4.394c0-4.137-3.506-7.502-7.816-7.502ZM2.476 7.784c0-2.825 2.396-5.125 5.34-5.125 2.943 0 5.339 2.3 5.339 5.125 0 2.826-2.396 5.125-5.34 5.125-2.943 0-5.339-2.299-5.339-5.125Z" fill="#000"/></svg>
